icons/save-2-line.svg

<svg xmlns="http://www.w3.org/2000/svg" width="24" height="24" fill="none"><g clip-path="url(#a)"><g><path fill="#121212" d="M5 5V19H19V7.828L16.172 5H5ZM4 3H17L20.707 6.707C20.8946 6.89449 20.9999 7.14881 21 7.414V20C21 20.2652 20.8946 20.5196 20.7071 20.7071C20.5196 20.8946 20.2652 21 20 21H4C3.73478 21 3.48043 20.8946 3.29289 20.7071C3.10536 20.5196 3 20.2652 3 20V4C3 3.73478 3.10536 3.48043 3.29289 3.29289C3.48043 3.10536 3.73478 3 4 3ZM12 18C11.2044 18 10.4413 17.6839 9.87868 17.1213C9.31607 16.5587 9 15.7956 9 15C9 14.2044 9.31607 13.4413 9.87868 12.8787C10.4413 12.3161 11.2044 12 12 12C12.7956 12 13.5587 12.3161 14.1213 12.8787C14.6839 13.4413 15 14.2044 15 15C15 15.7956 14.6839 16.5587 14.1213 17.1213C13.5587 17.6839 12.7956 18 12 18ZM6 6H15V10H6V6Z"/></g></g><defs><clipPath id="a"><rect width="24" height="24" fill="white"/></clipPath></defs></svg>

<svg width="24" height="24" fill="none" xmlns="http://www.w3.org/2000/svg"><g clip-path="url(#a)"><path d="M5 5v14h14V7.828L16.172 5H5ZM4 3h13l3.707 3.707a1 1 0 0 1 .293.707V20a1 1 0 0 1-1 1H4a1 1 0 0 1-1-1V4a1 1 0 0 1 1-1Zm8 15a3 3 0 1 1 0-6 3 3 0 0 1 0 6ZM6 6h9v4H6V6Z" /></g><defs><clipPath id="a"><path fill="#fff" d="M0 0h24v24H0z"/></clipPath></defs></svg>
